devices/16/input-mouse.svg

<?xml version="1.0" encoding="UTF-8" standalone="no"?>
<!-- Created with Inkscape (http://www.inkscape.org/) -->

<svg
   xmlns:dc="http://purl.org/dc/elements/1.1/"
   xmlns:cc="http://creativecommons.org/ns#"
   xmlns:rdf="http://www.w3.org/1999/02/22-rdf-syntax-ns#"
   xmlns:svg="http://www.w3.org/2000/svg"
   xmlns="http://www.w3.org/2000/svg"
   xmlns:sodipodi="http://sodipodi.sourceforge.net/DTD/sodipodi-0.dtd"
   xmlns:inkscape="http://www.inkscape.org/namespaces/inkscape"
   width="15.999998"
   height="15.999998"
   id="svg13094"
   version="1.1"
   inkscape:version="0.48.3.1 r9886"
   sodipodi:docname="input-mouse.svg">
  <sodipodi:namedview
     id="base"
     pagecolor="#ffffff"
     bordercolor="#666666"
     borderopacity="1.0"
     inkscape:pageopacity="0.0"
     inkscape:pageshadow="2"
     inkscape:zoom="45.254834"
     inkscape:cx="9.2240588"
     inkscape:cy="8.5979749"
     inkscape:document-units="px"
     inkscape:current-layer="layer1"
     showgrid="true"
     inkscape:snap-bbox="true"
     inkscape:bbox-paths="true"
     inkscape:bbox-nodes="true"
     inkscape:snap-bbox-edge-midpoints="true"
     inkscape:snap-bbox-midpoints="true"
     inkscape:object-paths="true"
     inkscape:snap-intersection-paths="true"
     inkscape:object-nodes="true"
     inkscape:snap-smooth-nodes="true"
     inkscape:snap-midpoints="true"
     inkscape:snap-object-midpoints="true"
     inkscape:snap-center="true"
     showguides="false"
     inkscape:guide-bbox="true"
     inkscape:window-width="1920"
     inkscape:window-height="1023"
     inkscape:window-x="-10"
     inkscape:window-y="35"
     inkscape:window-maximized="1"
     inkscape:snap-global="true"
     fit-margin-top="0"
     fit-margin-left="0"
     fit-margin-right="0"
     fit-margin-bottom="0"
     showborder="true"
     inkscape:showpageshadow="false">
    <sodipodi:guide
       orientation="0,1"
       position="-25.000005,930.61286"
       id="guide4700" />
    <sodipodi:guide
       orientation="0,1"
       position="576.71887,328.89388"
       id="guide4702" />
    <sodipodi:guide
       orientation="1,0"
       position="576.71899,489.70395"
       id="guide4706" />
    <sodipodi:guide
       orientation="1,0"
       position="54.999996,930.61286"
       id="guide4708" />
    <sodipodi:guide
       orientation="0,1"
       position="-25.000005,850.61296"
       id="guide4710" />
    <sodipodi:guide
       orientation="0,1"
       position="536.71887,408.8938"
       id="guide4712" />
    <sodipodi:guide
       orientation="1,0"
       position="496.71887,408.8938"
       id="guide4714" />
    <inkscape:grid
       type="xygrid"
       id="grid3216"
       empspacing="5"
       visible="true"
       enabled="true"
       snapvisiblegridlinesonly="true"
       originx="-24.999951px"
       originy="-219.00005px" />
    <sodipodi:guide
       orientation="-0.70710664,0.70710692"
       position="4.0000502,-246.00005"
       id="guide3847" />
    <sodipodi:guide
       orientation="0.70710594,0.70710762"
       position="5.0000502,-245.00005"
       id="guide3849" />
    <sodipodi:guide
       orientation="-0.70710681,0.70710676"
       position="7.0000502,-212.00005"
       id="guide3851" />
  </sodipodi:namedview>
  <defs
     id="defs13096" />
  <metadata
     id="metadata13099">
    <rdf:RDF>
      <cc:Work
         rdf:about="">
        <dc:format>image/svg+xml</dc:format>
        <dc:type
           rdf:resource="http://purl.org/dc/dcmitype/StillImage" />
        <dc:title />
      </cc:Work>
    </rdf:RDF>
  </metadata>
  <g
     transform="translate(9379.308,-4843.1988)"
     id="layer1"
     inkscape:groupmode="layer"
     inkscape:label="Camada 1">
    <path
       inkscape:connector-curvature="0"
       style="color:#000000;fill:#27303a;fill-opacity:0.75328081999999996;fill-rule:nonzero;stroke:none;stroke-width:1.20000005;marker:none;visibility:visible;display:inline;overflow:visible;enable-background:accumulate"
       d="m -9372.308,4844.1988 c -2.216,0 -4,1.784 -4,4 l 0,6 c 0,2.216 1.784,4 4,4 l 2,0 c 2.216,0 4,-1.784 4,-4 l 0,-6 c 0,-2.216 -1.784,-4 -4,-4 l -2,0 z m 1,2 c 0.554,0 1,0.446 1,1 l 0,3 c 0,0.554 -0.446,1 -1,1 -0.554,0 -1,-0.446 -1,-1 l 0,-3 c 0,-0.554 0.446,-1 1,-1 z"
       id="path3826" />
    <path
       style="font-size:medium;font-style:normal;font-variant:normal;font-weight:normal;font-stretch:normal;text-indent:0;text-align:start;text-decoration:none;line-height:normal;letter-spacing:normal;word-spacing:normal;text-transform:none;direction:ltr;block-progression:tb;writing-mode:lr-tb;text-anchor:start;baseline-shift:baseline;color:#000000;fill:#f1f3f5;fill-opacity:0.90288714000000003;fill-rule:nonzero;stroke:none;stroke-width:2;marker:none;visibility:visible;display:inline;overflow:visible;enable-background:accumulate;font-family:Sans;-inkscape-font-specification:Sans"
       d="M 5.53125 0 C 3.7978577 0.52112376 2.4535701 1.9538563 2 3.71875 L 2 12.40625 C 2.4873866 14.123955 3.8548428 15.496643 5.5625 16 L 10.4375 16 C 12.140986 15.499577 13.499577 14.140986 14 12.4375 L 14 3.5625 C 13.496617 1.8548428 12.123939 0.48738663 10.40625 0 L 5.53125 0 z M 7 1 L 9 1 C 11.216 1 13 2.784 13 5 L 13 11 C 13 13.216 11.216 15 9 15 L 7 15 C 4.784 15 3 13.216 3 11 L 3 5 C 3 2.784 4.784 1 7 1 z M 8 3 C 7.446 3 7 3.446 7 4 L 7 7 C 7 7.554 7.446 8 8 8 C 8.554 8 9 7.554 9 7 L 9 4 C 9 3.446 8.554 3 8 3 z "
       transform="translate(-9379.308,4843.1988)"
       id="path3796" />
  </g>
</svg>

<?xml version="1.0" encoding="UTF-8"?>
<!-- Created with Inkscape (http://www.inkscape.org/) -->
<svg width="16" height="16" version="1.1" xmlns="http://www.w3.org/2000/svg" xmlns:cc="http://creativecommons.org/ns#" xmlns:dc="http://purl.org/dc/elements/1.1/" xmlns:rdf="http://www.w3.org/1999/02/22-rdf-syntax-ns#">
	<defs>
		<radialGradient id="b" cx="8" cy="7" r="6" gradientTransform="matrix(1.5 0 0 2 -4.0001 -8.0001)" gradientUnits="userSpaceOnUse">
			<stop stop-color="#ffffff" stop-opacity=".74858" offset="0"/>
			<stop stop-color="#ffffff" stop-opacity=".60511" offset="1"/>
		</radialGradient>
		<radialGradient id="a" cx="323.22" cy="-95.923" r="7.254" gradientTransform="matrix(1.515 0 0 1.4662 -9859.8 4991.9)" gradientUnits="userSpaceOnUse">
			<stop stop-color="#213851" stop-opacity=".9059" offset="0"/>
			<stop stop-color="#27303a" stop-opacity="0" offset="1"/>
		</radialGradient>
	</defs>
	<metadata>
		<rdf:RDF>
			<cc:Work rdf:about="">
				<dc:format>image/svg+xml</dc:format>
				<dc:type rdf:resource="http://purl.org/dc/dcmitype/StillImage"/>
				<dc:title/>
			</cc:Work>
		</rdf:RDF>
	</metadata>
	<g transform="translate(9379.3 -4843.2)">
		<path d="m-9372.3 4844.2c-2.216 0-4 1.784-4 4v6c0 2.216 1.784 4 4 4h2c2.216 0 4-1.784 4-4v-6c0-2.216-1.784-4-4-4zm1 2c0.554 0 1 0.446 1 1v3c0 0.554-0.446 1-1 1s-1-0.446-1-1v-3c0-0.554 0.446-1 1-1z" color="#000000" fill="#090d11" fill-opacity=".76621" style="paint-order:normal"/>
		<path d="m-9372.3 4844.2c-2.216 0-4 1.784-4 4v6c0 2.216 1.784 4 4 4h2c2.216 0 4-1.784 4-4v-6c0-2.216-1.784-4-4-4h-2zm1 2c0.554 0 1 0.446 1 1v3c0 0.554-0.446 1-1 1s-1-0.446-1-1v-3c0-0.554 0.446-1 1-1z" color="#000000" fill="url(#a)" fill-opacity=".7533" style="font-variant-east_asian:normal;paint-order:normal"/>
		<path transform="translate(-9379.3 4843.2)" d="m5.5312 0c-1.7334 0.52112-3.0777 1.9539-3.5312 3.7188v8.6875c0.48739 1.7177 1.8548 3.0904 3.5625 3.5938h4.875c1.7035-0.50042 3.0621-1.859 3.5625-3.5625v-8.875c-0.50338-1.7077-1.8761-3.0751-3.5938-3.5625h-4.875zm1.4688 1h2c2.216 0 4 1.784 4 4v6c0 2.216-1.784 4-4 4h-2c-2.216 0-4-1.784-4-4v-6c0-2.216 1.784-4 4-4zm1 2c-0.554 0-1 0.446-1 1v3c0 0.554 0.446 1 1 1s1-0.446 1-1v-3c0-0.554-0.446-1-1-1z" color="#000000" fill="url(#b)" fill-opacity=".99858" style="block-progression:tb;font-variant-east_asian:normal;paint-order:normal;text-indent:0;text-transform:none"/>
	</g>
</svg>
